assets/img/braze_icons/log-in-04.svg

<svg fill="none" height="24" viewBox="0 0 24 24" width="24" xmlns="http://www.w3.org/2000/svg"><g fill="#801ed7"><path d="m12 3c-3.33002 0-6.23893 1.80801-7.79658 4.50073-.27654.47806-.88827.64142-1.36633.36488-.47806-.27655-.64143-.88828-.36488-1.36634 1.90044-3.28529 5.45497-5.49927 9.52779-5.49927 6.0751 0 11 4.92487 11 11 0 6.0751-4.9249 11-11 11-4.07282 0-7.62735-2.214-9.52779-5.4993-.27655-.478-.11318-1.0898.36488-1.3663s1.08979-.1132 1.36633.3649c1.55765 2.6927 4.46656 4.5007 7.79658 4.5007 4.9706 0 9-4.0294 9-9 0-4.97056-4.0294-9-9-9z"/><path d="m11.2929 7.29289c.3905-.39052 1.0237-.39052 1.4142 0l4 4.00001c.3905.3905.3905 1.0237 0 1.4142l-4 4c-.3905.3905-1.0237.3905-1.4142 0s-.3905-1.0237 0-1.4142l2.2929-2.2929h-10.5858c-.55228 0-1-.4477-1-1s.44772-1 1-1h10.5858l-2.2929-2.29289c-.3905-.39053-.3905-1.02369 0-1.41422z"/></g></svg>

<svg width="24" height="24" viewBox="0 0 24 24" fill="none" xmlns="http://www.w3.org/2000/svg">
<path d="M12 3C8.66998 3 5.76107 4.80801 4.20342 7.50073C3.92688 7.97879 3.31515 8.14215 2.83709 7.86561C2.35903 7.58906 2.19566 6.97733 2.47221 6.49927C4.37265 3.21398 7.92718 1 12 1C18.0751 1 23 5.92487 23 12C23 18.0751 18.0751 23 12 23C7.92718 23 4.37265 20.786 2.47221 17.5007C2.19566 17.0227 2.35903 16.4109 2.83709 16.1344C3.31515 15.8579 3.92688 16.0212 4.20342 16.4993C5.76107 19.192 8.66998 21 12 21C16.9706 21 21 16.9706 21 12C21 7.02944 16.9706 3 12 3Z" fill="#801ED7"/>
<path d="M11.2929 7.29289C11.6834 6.90237 12.3166 6.90237 12.7071 7.29289L16.7071 11.2929C17.0976 11.6834 17.0976 12.3166 16.7071 12.7071L12.7071 16.7071C12.3166 17.0976 11.6834 17.0976 11.2929 16.7071C10.9024 16.3166 10.9024 15.6834 11.2929 15.2929L13.5858 13H3C2.44772 13 2 12.5523 2 12C2 11.4477 2.44772 11 3 11H13.5858L11.2929 8.70711C10.9024 8.31658 10.9024 7.68342 11.2929 7.29289Z" fill="#801ED7"/>
</svg>
